staff/muyzan/partygoer/client/app/src/static/images/carousel/039-fun.svg

<?xml version="1.0" encoding="iso-8859-1"?>
<!-- Generator: Adobe Illustrator 19.0.0, SVG Export Plug-In . SVG Version: 6.00 Build 0)  -->
<svg version="1.1" id="Capa_1" xmlns="http://www.w3.org/2000/svg" xmlns:xlink="http://www.w3.org/1999/xlink" x="0px" y="0px"
	 viewBox="0 0 512 512" style="enable-background:new 0 0 512 512;" xml:space="preserve">
<path style="fill:#DCE5DF;" d="M512,296.647L512,296.647c0,49.43-40.071,89.5-89.5,89.5h-287c-49.429,0-89.5-40.071-89.5-89.5l0,0
	c0-28.951,13.75-54.686,35.071-71.045C35.595,221.353,0,183.086,0,136.5l0,0C0,87.07,40.07,47,89.5,47h287
	c49.429,0,89.5,40.07,89.5,89.5l0,0c0,28.951-13.75,54.686-35.071,71.045C476.405,211.794,512,250.061,512,296.647z"/>
<path style="fill:#77BD63;" d="M190,370c0-11.046,8.954-20,20-20s20,8.954,20,20s-8.954,20-20,20S190,381.046,190,370z"/>
<path style="fill:#FFC261;" d="M307.924,151.399L291,168.323V510.47h-70V168.323l-16.924-16.924
	c-11.716-11.716-11.716-30.711,0-42.426l15.065-15.065l-20.102-75.022c-2.206-8.234,2.886-16.705,11.311-18.542
	c7.891-1.721,15.686,3.385,17.776,11.187l15.365,57.341c1.517,5.662,6.648,9.599,12.509,9.599s10.992-3.937,12.509-9.599
	l15.474-57.75c2.206-8.234,10.852-13.024,19.067-10.402c7.695,2.455,11.891,10.775,9.801,18.576l-19.992,74.613l15.065,15.065
	C319.64,120.689,319.64,139.684,307.924,151.399z"/>
<g>
	<path style="fill:#F3B05F;" d="M291,503.164v7.306h-70V168.323l-16.924-16.924c-11.716-11.716-11.716-30.711,0-42.426
		l15.065-15.065l-20.102-75.022c-2.206-8.234,2.886-16.705,11.311-18.542c4.392-0.958,8.75,0.203,12.115,2.762
		c-4.483,3.506-6.698,9.46-5.132,15.304l18.059,67.328c1.852,6.903-0.121,14.27-5.175,19.324l-6.525,6.525
		c-11.426,11.426-11.426,29.952,0,41.378l10.648,10.648c3.751,3.751,5.858,8.838,5.858,14.142v325.409H291z"/>
	<path style="fill:#F3B05F;" d="M319.5,504.5c0,4.142-3.358,7.5-7.5,7.5H200c-4.142,0-7.5-3.358-7.5-7.5s3.358-7.5,7.5-7.5h112
		C316.142,497,319.5,500.358,319.5,504.5z"/>
</g>
<path style="fill:#CD8E5E;" d="M448.795,99.853c22.091,0,40,17.909,40,40V205c0,2.692-0.719,5.213-1.961,7.397
	c-1.459,3.839-3.729,7.44-6.821,10.532l-16.924,16.924V512h-70V239.853l-16.924-16.924c-3.092-3.092-5.362-6.693-6.821-10.532
	c-1.242-2.184-1.961-4.705-1.961-7.397v-70c0-8.284,6.716-15,15-15c6.528,0,13.409,4.178,15.47,10V85c0-8.284,6.716-15,15-15l0,0
	c8.284,0,15,6.716,15,15v14.853H448.795z"/>
<path style="fill:#BA8357;" d="M463.089,501.583V512h-70V239.853l-16.924-16.924c-3.092-3.092-5.362-6.693-6.821-10.532
	c-1.242-2.184-1.961-4.705-1.961-7.397v-70c0-8.284,6.716-15,15-15c1.516,0,3.049,0.234,4.538,0.653
	c-0.34,1.255-0.538,2.568-0.538,3.931v70c0,2.692,0.719,5.213,1.961,7.397c1.459,3.839,3.729,7.439,6.821,10.532l16.924,16.924
	v272.147L463.089,501.583L463.089,501.583z"/>
<path style="fill:#A0704F;" d="M487.5,504.5c0,4.142-3.358,7.5-7.5,7.5H368c-4.142,0-7.5-3.358-7.5-7.5s3.358-7.5,7.5-7.5h112
	C484.142,497,487.5,500.358,487.5,504.5z M435.342,167.353c4.142,0,7.5-3.358,7.5-7.5v-60h-14.988V99.62
	c-0.002,0.078-0.012,0.154-0.012,0.232v60C427.842,163.995,431.2,167.353,435.342,167.353z"/>
<path style="fill:#F4925A;" d="M84.146,194v-14.853c0-8.284,6.716-15,15-15l0,0c8.284,0,15,6.716,15,15v45
	c2.061-5.822,8.942-10,15.47-10c8.284,0,15,6.716,15,15v70c0,2.692-0.719,5.213-1.961,7.397c-1.459,3.839-3.729,7.44-6.821,10.532
	L118.911,334v178h-70V334l-16.924-16.924c-3.092-3.092-5.362-6.693-6.821-10.532c-1.242-2.184-1.961-4.705-1.961-7.397V234
	c0-22.091,17.909-40,40-40H84.146z"/>
<g>
	<path style="fill:#EA744F;" d="M118.911,502v10h-70V334l-16.924-16.924c-3.092-3.092-5.362-6.693-6.821-10.532
		c-1.242-2.184-1.961-4.705-1.961-7.397V234c0-18.221,12.187-33.585,28.851-38.414C44.74,202.835,40.205,212.887,40.205,224v65.147
		c0,2.692,0.719,5.213,1.961,7.397c1.459,3.839,3.729,7.44,6.821,10.532l11.066,11.066c3.751,3.751,5.858,8.838,5.858,14.142V502
		H118.911z"/>
	<path style="fill:#EA744F;" d="M114.146,284.147v-22.25v-37.75v-22.25v-0.001v22.251c2.012-5.683,8.614-9.787,15-9.981v9.981v37.75
		v22.25c0,4.142-3.358,7.5-7.5,7.5S114.146,288.289,114.146,284.147z M140,497H28c-4.142,0-7.5,3.358-7.5,7.5s3.358,7.5,7.5,7.5h112
		c4.142,0,7.5-3.358,7.5-7.5S144.142,497,140,497z"/>
</g>
<path style="fill:#77BD63;" d="M49.66,15c0,8.284-6.716,15-15,15s-15-6.716-15-15s6.716-15,15-15S49.66,6.716,49.66,15z"/>
<path style="fill:#6C6272;" d="M30,158.667c0,8.284-6.716,15-15,15s-15-6.716-15-15s6.716-15,15-15S30,150.382,30,158.667z"/>
<path style="fill:#F36754;" d="M100,100c0-11.046,8.954-20,20-20s20,8.954,20,20s-8.954,20-20,20S100,111.046,100,100z"/>
<path style="fill:#FFC261;" d="M512,15c0,8.284-6.716,15-15,15s-15-6.716-15-15s6.716-15,15-15S512,6.716,512,15z M120,390
	c-11.046,0-20,8.954-20,20s8.954,20,20,20s20-8.954,20-20S131.046,390,120,390z"/>
<path style="fill:#FF957C;" d="M440,430c0-11.046,8.954-20,20-20s20,8.954,20,20s-8.954,20-20,20S440,441.046,440,430z"/>
<path style="fill:#99CFD7;" d="M280,220c0-11.046,8.954-20,20-20s20,8.954,20,20s-8.954,20-20,20S280,231.046,280,220z"/>
<path style="fill:#6C6272;" d="M410,325c0,8.284-6.716,15-15,15s-15-6.716-15-15s6.716-15,15-15S410,316.716,410,325z"/>
<g>
</g>
<g>
</g>
<g>
</g>
<g>
</g>
<g>
</g>
<g>
</g>
<g>
</g>
<g>
</g>
<g>
</g>
<g>
</g>
<g>
</g>
<g>
</g>
<g>
</g>
<g>
</g>
<g>
</g>
</svg>

<?xml version="1.0" encoding="UTF-8" standalone="no"?>
<svg width="512px" height="512px" viewBox="0 0 512 512" version="1.1" xmlns="http://www.w3.org/2000/svg" xmlns:xlink="http://www.w3.org/1999/xlink">
    <!-- Generator: Sketch 41.2 (35397) - http://www.bohemiancoding.com/sketch -->
    <title>039-fun</title>
    <desc>Created with Sketch.</desc>
    <defs></defs>
    <g id="Page-1" stroke="none" stroke-width="1" fill="none" fill-rule="evenodd">
        <g id="039-fun">
            <path d="M190,370 C190,358.954 198.954,350 210,350 C221.046,350 230,358.954 230,370 C230,381.046 221.046,390 210,390 C198.954,390 190,381.046 190,370 Z" id="Shape" fill="#77BD63"></path>
            <path d="M307.924,151.399 L291,168.323 L291,510.47 L221,510.47 L221,168.323 L204.076,151.399 C192.36,139.683 192.36,120.688 204.076,108.973 L219.141,93.908 L199.039,18.886 C196.833,10.652 201.925,2.181 210.35,0.344 C218.241,-1.377 226.036,3.729 228.126,11.531 L243.491,68.872 C245.008,74.534 250.139,78.471 256,78.471 C261.861,78.471 266.992,74.534 268.509,68.872 L283.983,11.122 C286.189,2.888 294.835,-1.902 303.05,0.72 C310.745,3.175 314.941,11.495 312.851,19.296 L292.859,93.909 L307.924,108.974 C319.64,120.689 319.64,139.684 307.924,151.399 Z" id="Shape" fill="#FFC261"></path>
            <g id="Group" transform="translate(192.000000, 0.000000)" fill="#F3B05F">
                <path d="M99,503.164 L99,510.47 L29,510.47 L29,168.323 L12.076,151.399 C0.36,139.683 0.36,120.688 12.076,108.973 L27.141,93.908 L7.039,18.886 C4.833,10.652 9.925,2.181 18.35,0.344 C22.742,-0.614 27.1,0.547 30.465,3.106 C25.982,6.612 23.767,12.566 25.333,18.41 L43.392,85.738 C45.244,92.641 43.271,100.008 38.217,105.062 L31.692,111.587 C20.266,123.013 20.266,141.539 31.692,152.965 L42.34,163.613 C46.091,167.364 48.198,172.451 48.198,177.755 L48.198,503.164 L99,503.164 Z" id="Shape"></path>
                <path d="M127.5,504.5 C127.5,508.642 124.142,512 120,512 L8,512 C3.858,512 0.5,508.642 0.5,504.5 C0.5,500.358 3.858,497 8,497 L120,497 C124.142,497 127.5,500.358 127.5,504.5 Z" id="Shape"></path>
            </g>
            <path d="M448.795,99.853 C470.886,99.853 488.795,117.762 488.795,139.853 L488.795,205 C488.795,207.692 488.076,210.213 486.834,212.397 C485.375,216.236 483.105,219.837 480.013,222.929 L463.089,239.853 L463.089,512 L393.089,512 L393.089,239.853 L376.165,222.929 C373.073,219.837 370.803,216.236 369.344,212.397 C368.102,210.213 367.383,207.692 367.383,205 L367.383,135 C367.383,126.716 374.099,120 382.383,120 C388.911,120 395.792,124.178 397.853,130 L397.853,85 C397.853,76.716 404.569,70 412.853,70 L412.853,70 C421.137,70 427.853,76.716 427.853,85 L427.853,99.853 L448.795,99.853 Z" id="Shape" fill="#CD8E5E"></path>
            <path d="M463.089,501.583 L463.089,512 L393.089,512 L393.089,239.853 L376.165,222.929 C373.073,219.837 370.803,216.236 369.344,212.397 C368.102,210.213 367.383,207.692 367.383,205 L367.383,135 C367.383,126.716 374.099,120 382.383,120 C383.899,120 385.432,120.234 386.921,120.653 C386.581,121.908 386.383,123.221 386.383,124.584 L386.383,194.584 C386.383,197.276 387.102,199.797 388.344,201.981 C389.803,205.82 392.073,209.42 395.165,212.513 L412.089,229.437 L412.089,501.584 L463.089,501.583 L463.089,501.583 Z" id="Shape" fill="#BA8357"></path>
            <path d="M487.5,504.5 C487.5,508.642 484.142,512 480,512 L368,512 C363.858,512 360.5,508.642 360.5,504.5 C360.5,500.358 363.858,497 368,497 L480,497 C484.142,497 487.5,500.358 487.5,504.5 Z M435.342,167.353 C439.484,167.353 442.842,163.995 442.842,159.853 L442.842,99.853 L427.854,99.853 L427.854,99.62 C427.852,99.698 427.842,99.774 427.842,99.852 L427.842,159.852 C427.842,163.995 431.2,167.353 435.342,167.353 Z" id="Shape" fill="#A0704F"></path>
            <path d="M84.146,194 L84.146,179.147 C84.146,170.863 90.862,164.147 99.146,164.147 L99.146,164.147 C107.43,164.147 114.146,170.863 114.146,179.147 L114.146,224.147 C116.207,218.325 123.088,214.147 129.616,214.147 C137.9,214.147 144.616,220.863 144.616,229.147 L144.616,299.147 C144.616,301.839 143.897,304.36 142.655,306.544 C141.196,310.383 138.926,313.984 135.834,317.076 L118.911,334 L118.911,512 L48.911,512 L48.911,334 L31.987,317.076 C28.895,313.984 26.625,310.383 25.166,306.544 C23.924,304.36 23.205,301.839 23.205,299.147 L23.205,234 C23.205,211.909 41.114,194 63.205,194 L84.146,194 Z" id="Shape" fill="#F4925A"></path>
            <g id="Group" transform="translate(20.000000, 195.000000)" fill="#EA744F">
                <path d="M98.911,307 L98.911,317 L28.911,317 L28.911,139 L11.987,122.076 C8.895,118.984 6.625,115.383 5.166,111.544 C3.924,109.36 3.205,106.839 3.205,104.147 L3.205,39 C3.205,20.779 15.392,5.415 32.056,0.586 C24.74,7.835 20.205,17.887 20.205,29 L20.205,94.147 C20.205,96.839 20.924,99.36 22.166,101.544 C23.625,105.383 25.895,108.984 28.987,112.076 L40.053,123.142 C43.804,126.893 45.911,131.98 45.911,137.284 L45.911,307 L98.911,307 Z" id="Shape"></path>
                <path d="M94.146,89.147 L94.146,66.897 L94.146,29.147 L94.146,6.897 L94.146,6.896 L94.146,29.147 C96.158,23.464 102.76,19.36 109.146,19.166 L109.146,29.147 L109.146,66.897 L109.146,89.147 C109.146,93.289 105.788,96.647 101.646,96.647 C97.504,96.647 94.146,93.289 94.146,89.147 Z M120,302 L8,302 C3.858,302 0.5,305.358 0.5,309.5 C0.5,313.642 3.858,317 8,317 L120,317 C124.142,317 127.5,313.642 127.5,309.5 C127.5,305.358 124.142,302 120,302 Z" id="Shape"></path>
            </g>
            <path d="M49.66,15 C49.66,23.284 42.944,30 34.66,30 C26.376,30 19.66,23.284 19.66,15 C19.66,6.716 26.376,0 34.66,0 C42.944,0 49.66,6.716 49.66,15 Z" id="Shape" fill="#77BD63"></path>
            <path d="M30,158.667 C30,166.951 23.284,173.667 15,173.667 C6.716,173.667 0,166.951 0,158.667 C0,150.383 6.716,143.667 15,143.667 C23.284,143.667 30,150.382 30,158.667 Z" id="Shape" fill="#6C6272"></path>
            <path d="M100,100 C100,88.954 108.954,80 120,80 C131.046,80 140,88.954 140,100 C140,111.046 131.046,120 120,120 C108.954,120 100,111.046 100,100 Z" id="Shape" fill="#F36754"></path>
            <path d="M512,15 C512,23.284 505.284,30 497,30 C488.716,30 482,23.284 482,15 C482,6.716 488.716,0 497,0 C505.284,0 512,6.716 512,15 Z M120,390 C108.954,390 100,398.954 100,410 C100,421.046 108.954,430 120,430 C131.046,430 140,421.046 140,410 C140,398.954 131.046,390 120,390 Z" id="Shape" fill="#FFC261"></path>
            <path d="M440,430 C440,418.954 448.954,410 460,410 C471.046,410 480,418.954 480,430 C480,441.046 471.046,450 460,450 C448.954,450 440,441.046 440,430 Z" id="Shape" fill="#FF957C"></path>
            <path d="M280,220 C280,208.954 288.954,200 300,200 C311.046,200 320,208.954 320,220 C320,231.046 311.046,240 300,240 C288.954,240 280,231.046 280,220 Z" id="Shape" fill="#99CFD7"></path>
            <path d="M410,325 C410,333.284 403.284,340 395,340 C386.716,340 380,333.284 380,325 C380,316.716 386.716,310 395,310 C403.284,310 410,316.716 410,325 Z" id="Shape" fill="#6C6272"></path>
        </g>
    </g>
</svg>
